src/Static/Positions/ks-position-56.svg

<?xml version="1.0" encoding="UTF-8"?>
<svg width="178px" height="249px" viewBox="0 0 178 249" version="1.1" xmlns="http://www.w3.org/2000/svg" xmlns:xlink="http://www.w3.org/1999/xlink">
    <title>sex-etsy-56</title>
    <defs>
        <path d="M73.288,163.4497 L80.1489,151.7558 C76.9361,151.4657 74.0623,149.7271 72.3378,146.9522 C72.2057,146.7397 72.0911,146.52 71.9756,146.3008 C70.7695,146.4814 69.5695,146.5889 68.3935,146.5889 C68.3925,146.5889 68.3925,146.5889 68.3925,146.5889 C66.9968,146.5888 65.352,146.4477 63.6537,146.0011 L44.4521,227.9507 C43.1288,233.5967 46.6337,239.2466 52.2792,240.5694 C53.0849,240.7583 53.8906,240.8487 54.6835,240.8487 C59.4491,240.8487 63.7636,237.5821 64.8974,232.7417 L72.8951,198.6085 L71.2792,171.8306 C71.1015,168.8897 71.7958,165.9917 73.288,163.4497 Z" id="path-1"></path>
        <filter x="-23.6%" y="-7.3%" width="150.6%" height="118.4%" filterUnits="objectBoundingBox" id="filter-2">
            <feMorphology radius="1.5" operator="dilate" in="SourceAlpha" result="shadowSpreadOuter1"></feMorphology>
            <feOffset dx="0" dy="2" in="shadowSpreadOuter1" result="shadowOffsetOuter1"></feOffset>
            <feGaussianBlur stdDeviation="2" in="shadowOffsetOuter1" result="shadowBlurOuter1"></feGaussianBlur>
            <feComposite in="shadowBlurOuter1" in2="SourceAlpha" operator="out" result="shadowBlurOuter1"></feComposite>
            <feColorMatrix values="0 0 0 0 0   0 0 0 0 0   0 0 0 0 0  0 0 0 0.5 0" type="matrix" in="shadowBlurOuter1"></feColorMatrix>
        </filter>
        <path d="M130.6406,119.8999 C130.6277,119.9409 130.6108,119.9796 130.5975,120.0204 C130.5568,120.1455 130.5104,120.2675 130.4651,120.3906 C130.4028,120.5599 130.3378,120.7273 130.2674,120.8917 C130.2136,121.0174 130.1578,121.1417 130.0992,121.2648 C130.0192,121.4331 129.9336,121.5974 129.8453,121.7599 C129.7886,121.8639 129.7342,121.9691 129.6741,122.0709 C129.522,122.3293 129.3616,122.5812 129.1891,122.8232 C129.1888,122.8237 129.1885,122.8241 129.1882,122.8246 C128.9961,123.0939 128.7894,123.3502 128.5739,123.5981 C128.5636,123.6098 128.5526,123.621 128.5422,123.6327 C128.3288,123.8759 128.1033,124.1066 127.8688,124.3275 C127.8665,124.3297 127.8642,124.3318 127.8619,124.334 C127.2943,124.8679 126.669,125.3346 125.9956,125.726 L86.5234,150.2627 C85.4037,150.9587 84.1659,151.411 82.8837,151.6388 L75.2714,164.6133 C74.0165,166.7525 73.4257,169.2163 73.5751,171.6919 L77.0751,229.6919 C77.4755,236.3267 82.9814,241.4395 89.5409,241.4395 C89.7939,241.4395 90.0497,241.4317 90.3056,241.4165 C97.1962,241.0005 102.4462,235.0772 102.0302,228.1861 L98.7587,173.9834 L115.6032,145.2735 C116.486,145.3357 117.3762,145.3375 118.2714,145.2702 C123.2837,144.8937 128.4434,142.3091 133.2397,135.4215 C144.5887,116.15 148.5618,103.5474 150.4965,82.3459 C150.516,82.1161 150.5255,81.8922 150.5404,81.6651 L140.8845,87.2048 L130.6406,119.8999 Z" id="path-3"></path>
        <filter x="-11.0%" y="-4.8%" width="122.4%" height="111.4%" filterUnits="objectBoundingBox" id="filter-4">
            <feMorphology radius="1.5" operator="dilate" in="SourceAlpha" result="shadowSpreadOuter1"></feMorphology>
            <feOffset dx="0" dy="2" in="shadowSpreadOuter1" result="shadowOffsetOuter1"></feOffset>
            <feGaussianBlur stdDeviation="2" in="shadowOffsetOuter1" result="shadowBlurOuter1"></feGaussianBlur>
            <feComposite in="shadowBlurOuter1" in2="SourceAlpha" operator="out" result="shadowBlurOuter1"></feComposite>
            <feColorMatrix values="0 0 0 0 0   0 0 0 0 0   0 0 0 0 0  0 0 0 0.5 0" type="matrix" in="shadowBlurOuter1"></feColorMatrix>
        </filter>
        <path d="M130.5732,63.6071 L139.6389,58.4061 C137.711,57.2681 135.6865,56.5124 133.7013,56.1672 C129.6248,55.4595 125.6409,57.1599 122.4181,60.2265 C122.8035,60.1746 123.1929,60.1461 123.5844,60.1461 C126.3704,60.1461 128.9152,61.4292 130.5732,63.6071 Z" id="path-5"></path>
        <filter x="-66.1%" y="-85.5%" width="223.3%" height="330.5%" filterUnits="objectBoundingBox" id="filter-6">
            <feMorphology radius="1.5" operator="dilate" in="SourceAlpha" result="shadowSpreadOuter1"></feMorphology>
            <feOffset dx="0" dy="2" in="shadowSpreadOuter1" result="shadowOffsetOuter1"></feOffset>
            <feGaussianBlur stdDeviation="2" in="shadowOffsetOuter1" result="shadowBlurOuter1"></feGaussianBlur>
            <feComposite in="shadowBlurOuter1" in2="SourceAlpha" operator="out" result="shadowBlurOuter1"></feComposite>
            <feColorMatrix values="0 0 0 0 0   0 0 0 0 0   0 0 0 0 0  0 0 0 0.5 0" type="matrix" in="shadowBlurOuter1"></feColorMatrix>
        </filter>
        <circle id="path-7" cx="128.05056" cy="27.5069551" r="22.4999849"></circle>
        <filter x="-18.9%" y="-14.4%" width="137.8%" height="137.8%" filterUnits="objectBoundingBox" id="filter-8">
            <feMorphology radius="1.5" operator="dilate" in="SourceAlpha" result="shadowSpreadOuter1"></feMorphology>
            <feOffset dx="0" dy="2" in="shadowSpreadOuter1" result="shadowOffsetOuter1"></feOffset>
            <feGaussianBlur stdDeviation="2" in="shadowOffsetOuter1" result="shadowBlurOuter1"></feGaussianBlur>
            <feComposite in="shadowBlurOuter1" in2="SourceAlpha" operator="out" result="shadowBlurOuter1"></feComposite>
            <feColorMatrix values="0 0 0 0 0   0 0 0 0 0   0 0 0 0 0  0 0 0 0.5 0" type="matrix" in="shadowBlurOuter1"></feColorMatrix>
        </filter>
        <path d="M115.5849,106.7482 L114.0668,111.5936 L76.8622,134.7202 C73.1103,137.0528 71.9589,141.9859 74.2919,145.7383 C75.8066,148.1763 78.4199,149.5157 81.0937,149.5157 C82.5351,149.5157 83.995,149.126 85.3095,148.3091 L125.0361,123.6148 C126.8499,122.4871 128.0491,120.7499 128.5475,118.8339 C128.5541,118.8318 128.56,118.8301 128.5667,118.8279 L137.9466,88.8903 L123.0859,97.416 L115.5849,106.7482 Z" id="path-9"></path>
        <filter x="-13.1%" y="-13.5%" width="127.9%" height="130.9%" filterUnits="objectBoundingBox" id="filter-10">
            <feMorphology radius="1.5" operator="dilate" in="SourceAlpha" result="shadowSpreadOuter1"></feMorphology>
            <feOffset dx="0" dy="2" in="shadowSpreadOuter1" result="shadowOffsetOuter1"></feOffset>
            <feGaussianBlur stdDeviation="2" in="shadowOffsetOuter1" result="shadowBlurOuter1"></feGaussianBlur>
            <feComposite in="shadowBlurOuter1" in2="SourceAlpha" operator="out" result="shadowBlurOuter1"></feComposite>
            <feColorMatrix values="0 0 0 0 0   0 0 0 0 0   0 0 0 0 0  0 0 0 0.5 0" type="matrix" in="shadowBlurOuter1"></feColorMatrix>
        </filter>
        <path d="M8.4768,56.6204 C5.4977,62.107 4.9434,69.6849 12.2864,80.1078 C21.9456,93.8182 18.73,99.1792 14.8475,101.5373 C10.965,103.8955 24.9794,104.9072 27.6176,89.8714 C29.3418,80.0446 18.7718,69.709 16.6509,62.0854 C14.8045,61.3462 13.0218,60.3636 11.3497,59.127 C10.3096,58.3578 9.3536,57.5171 8.4768,56.6204 Z" id="path-11"></path>
        <filter x="-39.7%" y="-16.2%" width="179.4%" height="138.9%" filterUnits="objectBoundingBox" id="filter-12">
            <feMorphology radius="1.5" operator="dilate" in="SourceAlpha" result="shadowSpreadOuter1"></feMorphology>
            <feOffset dx="0" dy="2" in="shadowSpreadOuter1" result="shadowOffsetOuter1"></feOffset>
            <feGaussianBlur stdDeviation="2" in="shadowOffsetOuter1" result="shadowBlurOuter1"></feGaussianBlur>
            <feComposite in="shadowBlurOuter1" in2="SourceAlpha" operator="out" result="shadowBlurOuter1"></feComposite>
            <feColorMatrix values="0 0 0 0 0   0 0 0 0 0   0 0 0 0 0  0 0 0 0.5 0" type="matrix" in="shadowBlurOuter1"></feColorMatrix>
        </filter>
        <circle id="path-13" cx="25.50324" cy="39.9919625" r="21.5008505"></circle>
        <filter x="-19.8%" y="-15.1%" width="139.5%" height="139.5%" filterUnits="objectBoundingBox" id="filter-14">
            <feMorphology radius="1.5" operator="dilate" in="SourceAlpha" result="shadowSpreadOuter1"></feMorphology>
            <feOffset dx="0" dy="2" in="shadowSpreadOuter1" result="shadowOffsetOuter1"></feOffset>
            <feGaussianBlur stdDeviation="2" in="shadowOffsetOuter1" result="shadowBlurOuter1"></feGaussianBlur>
            <feComposite in="shadowBlurOuter1" in2="SourceAlpha" operator="out" result="shadowBlurOuter1"></feComposite>
            <feColorMatrix values="0 0 0 0 0   0 0 0 0 0   0 0 0 0 0  0 0 0 0.5 0" type="matrix" in="shadowBlurOuter1"></feColorMatrix>
        </filter>
        <path d="M156.956,51.1231 L131.7211,65.6002 C132.4287,67.3091 132.5878,69.1886 132.143,71.0207 C131.5893,73.3043 130.1791,75.2365 128.1723,76.4601 L94.1928,97.1759 C93.7694,97.4339 93.3222,97.6411 92.8655,97.8231 L81.2934,112.2202 C78.7944,107.3387 76.2787,101.4593 74.0889,94.4739 L49.6088,87.6554 C44.935,86.3532 42.1908,81.4909 43.4926,76.817 C44.5492,73.0246 48.0356,70.3766 51.9701,70.3766 C52.766,70.3766 53.56,70.4855 54.3315,70.7003 L81.573,78.2886 C82.4777,74.2489 79.8905,69.6904 76.8324,67.193 C76.9911,66.9294 77.0883,66.624 77.0883,66.2938 C77.0883,65.3273 76.3046,64.5438 75.3383,64.5438 C74.5199,64.5438 73.8383,65.1079 73.6469,65.8667 C71.1347,65.6433 66.9233,65.9304 62.7988,66.3511 C59.164,65.561 54.3788,64.6316 49.1777,57.3119 C39.1972,57.4555 30.8066,65.3944 33.8437,79.0501 C36.8276,92.4749 51.5688,91.6533 54.5029,129.3467 C55.4825,141.934 63.0221,145.1243 71.114,144.101 C70.6986,142.5064 70.6706,140.8249 71.0556,139.1743 C71.6806,136.4951 73.3115,134.2193 75.6484,132.7671 L107.7695,112.8004 L121.5654,95.6367 L167.4052,69.3379 C172.4355,66.4527 174.1738,60.0357 171.288,55.0054 C168.4023,49.9756 161.9833,48.2359 156.956,51.1231 Z" id="path-15"></path>
        <filter x="-6.1%" y="-6.9%" width="112.2%" height="118.0%" filterUnits="objectBoundingBox" id="filter-16">
            <feMorphology radius="1.5" operator="dilate" in="SourceAlpha" result="shadowSpreadOuter1"></feMorphology>
            <feOffset dx="0" dy="2" in="shadowSpreadOuter1" result="shadowOffsetOuter1"></feOffset>
            <feGaussianBlur stdDeviation="2" in="shadowOffsetOuter1" result="shadowBlurOuter1"></feGaussianBlur>
            <feComposite in="shadowBlurOuter1" in2="SourceAlpha" operator="out" result="shadowBlurOuter1"></feComposite>
            <feColorMatrix values="0 0 0 0 0   0 0 0 0 0   0 0 0 0 0  0 0 0 0.5 0" type="matrix" in="shadowBlurOuter1"></feColorMatrix>
        </filter>
        <path d="M53.7143,72.9162 C50.2621,71.9547 46.6723,73.9752 45.7084,77.4337 C44.7455,80.8922 46.768,84.4762 50.226,85.4396 L87.8676,95.924 C88.4408,96.0836 89.0278,96.1623 89.6117,96.1623 C90.7944,96.1623 91.9662,95.8395 92.9955,95.2121 L126.975,74.4962 C130.0395,72.6276 131.0102,68.6281 129.141,65.5631 C127.2719,62.4972 123.2719,61.529 120.2074,63.3966 L88.6371,82.6437 L53.7143,72.9162 Z" id="path-17"></path>
        <filter x="-10.0%" y="-19.3%" width="120.1%" height="150.4%" filterUnits="objectBoundingBox" id="filter-18">
            <feMorphology radius="1.5" operator="dilate" in="SourceAlpha" result="shadowSpreadOuter1"></feMorphology>
            <feOffset dx="0" dy="2" in="shadowSpreadOuter1" result="shadowOffsetOuter1"></feOffset>
            <feGaussianBlur stdDeviation="2" in="shadowOffsetOuter1" result="shadowBlurOuter1"></feGaussianBlur>
            <feComposite in="shadowBlurOuter1" in2="SourceAlpha" operator="out" result="shadowBlurOuter1"></feComposite>
            <feColorMatrix values="0 0 0 0 0   0 0 0 0 0   0 0 0 0 0  0 0 0 0.5 0" type="matrix" in="shadowBlurOuter1"></feColorMatrix>
        </filter>
    </defs>
    <g id="Page-2" stroke="none" stroke-width="1" fill="none" fill-rule="evenodd">
        <g id="sex-etsy-56" fill-rule="nonzero">
            <g id="Path">
                <use fill="black" fill-opacity="1" filter="url(#filter-2)" xlink:href="#path-1"></use>
                <use stroke="#1A1A1D" stroke-width="3" fill="#6F2232" xlink:href="#path-1"></use>
            </g>
            <g id="Path">
                <use fill="black" fill-opacity="1" filter="url(#filter-4)" xlink:href="#path-3"></use>
                <use stroke="#1A1A1D" stroke-width="3" fill="#4E4E50" xlink:href="#path-3"></use>
            </g>
            <g id="Path">
                <use fill="black" fill-opacity="1" filter="url(#filter-6)" xlink:href="#path-5"></use>
                <use stroke="#1A1A1D" stroke-width="3" fill="#4E4E50" xlink:href="#path-5"></use>
            </g>
            <g id="Oval" transform="translate(128.050560, 27.506955) rotate(-76.532124) translate(-128.050560, -27.506955) ">
                <use fill="black" fill-opacity="1" filter="url(#filter-8)" xlink:href="#path-7"></use>
                <use stroke="#1A1A1D" stroke-width="3" fill="#4E4E50" xlink:href="#path-7"></use>
            </g>
            <g id="Path">
                <use fill="black" fill-opacity="1" filter="url(#filter-10)" xlink:href="#path-9"></use>
                <use stroke="#1A1A1D" stroke-width="3" fill="#4E4E50" xlink:href="#path-9"></use>
            </g>
            <g id="Path">
                <use fill="black" fill-opacity="1" filter="url(#filter-12)" xlink:href="#path-11"></use>
                <use stroke="#1A1A1D" stroke-width="3" fill="#6F2232" xlink:href="#path-11"></use>
            </g>
            <g id="Oval" transform="translate(25.503240, 39.991963) rotate(-80.596076) translate(-25.503240, -39.991963) ">
                <use fill="black" fill-opacity="1" filter="url(#filter-14)" xlink:href="#path-13"></use>
                <use stroke="#1A1A1D" stroke-width="3" fill="#6F2232" xlink:href="#path-13"></use>
            </g>
            <g id="Path">
                <use fill="black" fill-opacity="1" filter="url(#filter-16)" xlink:href="#path-15"></use>
                <use stroke="#1A1A1D" stroke-width="3" fill="#6F2232" xlink:href="#path-15"></use>
            </g>
            <g id="Path">
                <use fill="black" fill-opacity="1" filter="url(#filter-18)" xlink:href="#path-17"></use>
                <use stroke="#1A1A1D" stroke-width="3" fill="#6F2232" xlink:href="#path-17"></use>
            </g>
        </g>
    </g>
</svg>

<svg xmlns="http://www.w3.org/2000/svg" width="178" height="249" xmlns:xlink="http://www.w3.org/1999/xlink"><title>sex-etsy-56</title><defs><path id="b" d="M73.3 163.45l6.85-11.7c-3.2-.28-6.1-2.02-7.8-4.8-.14-.2-.26-.43-.37-.65-1.2.18-2.4.3-3.6.3-1.38 0-3.03-.15-4.73-.6l-19.2 81.95c-1.32 5.65 2.18 11.3 7.83 12.62.8.2 1.6.28 2.4.28 4.77 0 9.08-3.27 10.22-8.1l8-34.14-1.62-26.77c-.18-2.94.52-5.84 2-8.38z"/><filter id="a" width="150.6%" height="118.4%" x="-23.6%" y="-7.3%" filterUnits="objectBoundingBox"><feMorphology radius="1.5" operator="dilate" in="SourceAlpha" result="shadowSpreadOuter1"/><feOffset dy="2" in="shadowSpreadOuter1" result="shadowOffsetOuter1"/><feGaussianBlur stdDeviation="2" in="shadowOffsetOuter1" result="shadowBlurOuter1"/><feComposite in="shadowBlurOuter1" in2="SourceAlpha" operator="out" result="shadowBlurOuter1"/><feColorMatrix values="0 0 0 0 0 0 0 0 0 0 0 0 0 0 0 0 0 0 0.5 0" in="shadowBlurOuter1"/></filter><path id="d" d="M130.64 119.9c0 .04-.03.08-.04.12-.04.13-.1.25-.13.37-.07.16-.13.33-.2.5-.06.12-.1.24-.17.36-.08.17-.17.34-.25.5-.06.1-.12.2-.18.3-.15.27-.3.52-.48.76-.2.27-.4.53-.63.78 0 0-.02.02-.03.03-.2.25-.44.48-.67.7-.58.54-1.2 1-1.87 1.4l-39.48 24.53c-1.12.7-2.35 1.15-3.64 1.38l-7.6 12.97c-1.26 2.15-1.85 4.62-1.7 7.1l3.5 58c.4 6.63 5.9 11.74 12.46 11.74.25 0 .5 0 .77-.02 6.9-.42 12.15-6.34 11.73-13.23l-3.27-54.22 16.84-28.7c.9.06 1.78.06 2.67 0 5-.4 10.17-2.97 14.97-9.86 11.35-19.27 15.32-31.87 17.26-53.07.02-.23.03-.46.04-.68l-9.66 5.53-10.24 32.7z"/><filter id="c" width="122.4%" height="111.4%" x="-11%" y="-4.8%" filterUnits="objectBoundingBox"><feMorphology radius="1.5" operator="dilate" in="SourceAlpha" result="shadowSpreadOuter1"/><feOffset dy="2" in="shadowSpreadOuter1" result="shadowOffsetOuter1"/><feGaussianBlur stdDeviation="2" in="shadowOffsetOuter1" result="shadowBlurOuter1"/><feComposite in="shadowBlurOuter1" in2="SourceAlpha" operator="out" result="shadowBlurOuter1"/><feColorMatrix values="0 0 0 0 0 0 0 0 0 0 0 0 0 0 0 0 0 0 0.5 0" in="shadowBlurOuter1"/></filter><path id="f" d="M130.57 63.6l9.07-5.2c-1.93-1.13-3.95-1.9-5.94-2.23-4.08-.7-8.06 1-11.28 4.06.38-.06.77-.08 1.16-.08 2.8 0 5.34 1.28 7 3.46z"/><filter id="e" width="223.3%" height="330.5%" x="-66.1%" y="-85.5%" filterUnits="objectBoundingBox"><feMorphology radius="1.5" operator="dilate" in="SourceAlpha" result="shadowSpreadOuter1"/><feOffset dy="2" in="shadowSpreadOuter1" result="shadowOffsetOuter1"/><feGaussianBlur stdDeviation="2" in="shadowOffsetOuter1" result="shadowBlurOuter1"/><feComposite in="shadowBlurOuter1" in2="SourceAlpha" operator="out" result="shadowBlurOuter1"/><feColorMatrix values="0 0 0 0 0 0 0 0 0 0 0 0 0 0 0 0 0 0 0.5 0" in="shadowBlurOuter1"/></filter><circle id="h" cx="128.051" cy="27.507" r="22.5"/><filter id="g" width="137.8%" height="137.8%" x="-18.9%" y="-14.4%" filterUnits="objectBoundingBox"><feMorphology radius="1.5" operator="dilate" in="SourceAlpha" result="shadowSpreadOuter1"/><feOffset dy="2" in="shadowSpreadOuter1" result="shadowOffsetOuter1"/><feGaussianBlur stdDeviation="2" in="shadowOffsetOuter1" result="shadowBlurOuter1"/><feComposite in="shadowBlurOuter1" in2="SourceAlpha" operator="out" result="shadowBlurOuter1"/><feColorMatrix values="0 0 0 0 0 0 0 0 0 0 0 0 0 0 0 0 0 0 0.5 0" in="shadowBlurOuter1"/></filter><path id="j" d="M115.58 106.75l-1.5 4.84-37.22 23.12c-3.75 2.33-4.9 7.27-2.57 11.02 1.5 2.44 4.12 3.78 6.8 3.78 1.44 0 2.9-.4 4.2-1.2l39.74-24.7c1.8-1.13 3-2.87 3.5-4.8 0 0 .02 0 .03 0l9.38-29.93-14.86 8.52-7.52 9.33z"/><filter id="i" width="127.9%" height="130.9%" x="-13.1%" y="-13.5%" filterUnits="objectBoundingBox"><feMorphology radius="1.5" operator="dilate" in="SourceAlpha" result="shadowSpreadOuter1"/><feOffset dy="2" in="shadowSpreadOuter1" result="shadowOffsetOuter1"/><feGaussianBlur stdDeviation="2" in="shadowOffsetOuter1" result="shadowBlurOuter1"/><feComposite in="shadowBlurOuter1" in2="SourceAlpha" operator="out" result="shadowBlurOuter1"/><feColorMatrix values="0 0 0 0 0 0 0 0 0 0 0 0 0 0 0 0 0 0 0.5 0" in="shadowBlurOuter1"/></filter><path id="l" d="M8.48 56.62c-2.98 5.5-3.54 13.06 3.8 23.5 9.67 13.7 6.45 19.06 2.57 21.42-3.88 2.36 10.13 3.37 12.77-11.67 1.72-9.83-8.85-20.16-10.97-27.78-1.85-.75-3.63-1.74-5.3-2.97-1.04-.77-2-1.6-2.87-2.5z"/><filter id="k" width="179.4%" height="138.9%" x="-39.7%" y="-16.2%" filterUnits="objectBoundingBox"><feMorphology radius="1.5" operator="dilate" in="SourceAlpha" result="shadowSpreadOuter1"/><feOffset dy="2" in="shadowSpreadOuter1" result="shadowOffsetOuter1"/><feGaussianBlur stdDeviation="2" in="shadowOffsetOuter1" result="shadowBlurOuter1"/><feComposite in="shadowBlurOuter1" in2="SourceAlpha" operator="out" result="shadowBlurOuter1"/><feColorMatrix values="0 0 0 0 0 0 0 0 0 0 0 0 0 0 0 0 0 0 0.5 0" in="shadowBlurOuter1"/></filter><circle id="n" cx="25.503" cy="39.992" r="21.501"/><filter id="m" width="139.5%" height="139.5%" x="-19.8%" y="-15.1%" filterUnits="objectBoundingBox"><feMorphology radius="1.5" operator="dilate" in="SourceAlpha" result="shadowSpreadOuter1"/><feOffset dy="2" in="shadowSpreadOuter1" result="shadowOffsetOuter1"/><feGaussianBlur stdDeviation="2" in="shadowOffsetOuter1" result="shadowBlurOuter1"/><feComposite in="shadowBlurOuter1" in2="SourceAlpha" operator="out" result="shadowBlurOuter1"/><feColorMatrix values="0 0 0 0 0 0 0 0 0 0 0 0 0 0 0 0 0 0 0.5 0" in="shadowBlurOuter1"/></filter><path id="p" d="M156.96 51.12L131.72 65.6c.7 1.7.87 3.6.42 5.42-.55 2.28-1.96 4.22-3.97 5.44L94.2 97.18c-.43.25-.88.46-1.33.64l-11.58 14.4c-2.5-4.88-5.02-10.76-7.2-17.75l-24.5-6.8c-4.66-1.32-7.4-6.18-6.1-10.85 1.05-3.8 4.54-6.44 8.47-6.44.8 0 1.6.1 2.36.32l27.24 7.6c.9-4.05-1.68-8.6-4.74-11.1.16-.27.26-.58.26-.9 0-.97-.8-1.76-1.76-1.76-.82 0-1.5.57-1.7 1.33-2.5-.23-6.72.06-10.84.48-3.64-.8-8.42-1.72-13.62-9.04-9.98.16-18.37 8.1-15.34 21.75 3 13.42 17.73 12.6 20.66 50.3.98 12.58 8.52 15.77 16.6 14.75-.4-1.6-.43-3.28-.04-4.93.62-2.67 2.25-4.95 4.6-6.4l32.1-19.97 13.8-17.16 45.85-26.3c5.04-2.9 6.77-9.3 3.9-14.33-2.9-5.02-9.32-6.76-14.34-3.88z"/><filter id="o" width="112.2%" height="118%" x="-6.1%" y="-6.9%" filterUnits="objectBoundingBox"><feMorphology radius="1.5" operator="dilate" in="SourceAlpha" result="shadowSpreadOuter1"/><feOffset dy="2" in="shadowSpreadOuter1" result="shadowOffsetOuter1"/><feGaussianBlur stdDeviation="2" in="shadowOffsetOuter1" result="shadowBlurOuter1"/><feComposite in="shadowBlurOuter1" in2="SourceAlpha" operator="out" result="shadowBlurOuter1"/><feColorMatrix values="0 0 0 0 0 0 0 0 0 0 0 0 0 0 0 0 0 0 0.5 0" in="shadowBlurOuter1"/></filter><path id="r" d="M53.7 72.92c-3.44-.97-7.03 1.06-8 4.5-.95 3.47 1.07 7.06 4.53 8.02l37.64 10.48c.57.16 1.16.24 1.74.24 1.2 0 2.37-.32 3.4-.95l33.97-20.7c3.07-1.87 4.04-5.87 2.17-8.94-1.87-3.06-5.87-4.03-8.93-2.16L88.65 82.64 53.7 72.92z"/><filter id="q" width="120.1%" height="150.4%" y="-19.3%" filterUnits="objectBoundingBox"><feMorphology radius="1.5" operator="dilate" in="SourceAlpha" result="shadowSpreadOuter1"/><feOffset dy="2" in="shadowSpreadOuter1" result="shadowOffsetOuter1"/><feGaussianBlur stdDeviation="2" in="shadowOffsetOuter1" result="shadowBlurOuter1"/><feComposite in="shadowBlurOuter1" in2="SourceAlpha" operator="out" result="shadowBlurOuter1"/><feColorMatrix values="0 0 0 0 0 0 0 0 0 0 0 0 0 0 0 0 0 0 0.5 0" in="shadowBlurOuter1"/></filter></defs><g fill="none"><g fill-rule="nonzero"><g id="Path"><use fill="#000" filter="url(#a)" xlink:href="#b"/><use fill="#6F2232" stroke="#1A1A1D" stroke-width="3" xlink:href="#b"/></g><g id="Path"><use fill="#000" filter="url(#c)" xlink:href="#d"/><use fill="#4E4E50" stroke="#1A1A1D" stroke-width="3" xlink:href="#d"/></g><g id="Path"><use fill="#000" filter="url(#e)" xlink:href="#f"/><use fill="#4E4E50" stroke="#1A1A1D" stroke-width="3" xlink:href="#f"/></g><g id="Oval" transform="rotate(-76.532 128.051 27.507)"><use fill="#000" filter="url(#g)" xlink:href="#h"/><use fill="#4E4E50" stroke="#1A1A1D" stroke-width="3" xlink:href="#h"/></g><g id="Path"><use fill="#000" filter="url(#i)" xlink:href="#j"/><use fill="#4E4E50" stroke="#1A1A1D" stroke-width="3" xlink:href="#j"/></g><g id="Path"><use fill="#000" filter="url(#k)" xlink:href="#l"/><use fill="#6F2232" stroke="#1A1A1D" stroke-width="3" xlink:href="#l"/></g><g transform="rotate(-80.596 25.503 39.992)"><use fill="#000" filter="url(#m)" xlink:href="#n"/><use fill="#6F2232" stroke="#1A1A1D" stroke-width="3" xlink:href="#n"/></g><g id="Path"><use fill="#000" filter="url(#o)" xlink:href="#p"/><use fill="#6F2232" stroke="#1A1A1D" stroke-width="3" xlink:href="#p"/></g><g><use fill="#000" filter="url(#q)" xlink:href="#r"/><use fill="#6F2232" stroke="#1A1A1D" stroke-width="3" xlink:href="#r"/></g></g></g></svg>
